material/.icons/material/soccer-field.svg

<svg xmlns="http://www.w3.org/2000/svg" viewBox="0 0 24 24"><path d="M4 4c-1.11 0-2 .89-2 2v12a2 2 0 002 2h16a2 2 0 002-2V6a2 2 0 00-2-2H4m0 2h7v2.13c-1.76.46-3 2.05-3 3.87a4.01 4.01 0 003 3.87V18H4v-2h3V8H4V6m9 0h7v2h-3v8h3v2h-7v-2.13c1.76-.46 3-2.05 3-3.87a4.01 4.01 0 00-3-3.87V6m-9 4h1v4H4v-4m15 0h1v4h-1v-4m-6 .27c.62.36 1 1.02 1 1.73s-.38 1.37-1 1.73v-3.46m-2 0v3.46c-.62-.36-1-1.02-1-1.73s.38-1.37 1-1.73z"/></svg>

<?xml version="1.0" encoding="UTF-8"?><!DOCTYPE svg PUBLIC "-//W3C//DTD SVG 1.1//EN" "http://www.w3.org/Graphics/SVG/1.1/DTD/svg11.dtd"><svg xmlns="http://www.w3.org/2000/svg" xmlns:xlink="http://www.w3.org/1999/xlink" version="1.1" id="mdi-soccer-field" width="24" height="24" viewBox="0 0 24 24"><path d="M4,4C2.89,4 2,4.89 2,6V18A2,2 0 0,0 4,20H20A2,2 0 0,0 22,18V6C22,4.89 21.1,4 20,4H4M4,6H11V8.13C9.24,8.59 8,10.18 8,12C8,13.82 9.24,15.41 11,15.87V18H4V16H7V8H4V6M13,6H20V8H17V16H20V18H13V15.87C14.76,15.41 16,13.82 16,12C16,10.18 14.76,8.59 13,8.13V6M4,10H5V14H4V10M19,10H20V14H19V10M13,10.27C13.62,10.63 14,11.29 14,12C14,12.71 13.62,13.37 13,13.73V10.27M11,10.27V13.73C10.38,13.37 10,12.71 10,12C10,11.29 10.38,10.63 11,10.27Z" /></svg>
